X:1
T:I Need to Be Filled
T:Robert Harkness
T:I Need to Be Filled
T:Public Domain
T:Public Domain
C:Robert Harkness
Z:Public Domain
%%score ( 1 2 ) ( 3 4 )
L:1/8
M:6/8
K:G
V:1 treble 
V:2 treble 
V:3 bass 
V:4 bass 
V:1
 D | [DG]>[DG][DG] [DB][DA][DG] | [CE] [EG]4 [CE] | [B,D]>[DG][DA] [DB]2 [Dd] | [DA]3- [DA]2 D | %5
w: 1.~I|to be filled with the Spir-|it, Each mo-|ment of ev- ery day,|I * need|
w: 2.~I|be to filled for the home|life, I need|it for work out- side,|I * need|
w: 3.~I|to be filled with the Spir-|it, To hear|or to read His Word,|I * need|
w: 4.~I|it, and oh, I may have|it, For by|His en- ab- ling power,|The * Spir-|
 [DG]>[DG][DG] [DB][DA][DG] | [CE] [EG]4 [Ec] | [DB]>[CA][B,G] [CF]2 [CA] | [B,G]3- [B,G]2 || %9
w: be filled in the morn- ing,|Ere start- ing|up- on my way. *||
w: a- lone in God’s pre- sence,|That I may|in Him a- bide. *||
w: be filled when by speak- ing,|I wit- ness|for Christ my Lord. *||
w: Whom He has once giv- en,|Can fill me|this ver- y hour. *||
"^Refrain" [B,D] | [DA]>[DA][DA] [DB]2 [DA] | [DG] [DB]4 [Gd] | [Bd]>[Ac][GB] [Ac]2 [GB] | %13
w: ||||
w: ||||
w: ||||
w: ||||
 [FA]3- [FA]2 [Fd] | [Gd]>[Gd][Gd] [=FB][FA][FG] | [Ec] [Ge]4 [Ec] | [DB]>[CA][B,G] [CF]2 [CA] | %17
w: ||||
w: ||||
w: ||||
w: ||||
 [B,G]3- [B,G]2 |] %18
w: |
w: |
w: |
w: |
V:2
 D | x6 | x6 | x6 | x5 D | x6 | x6 | x6 | x5 || x | x6 | x6 | x6 | x6 | x6 | x6 | x6 | x5 |] %18
w: need||||to||||||||||||||
w: need||||it||||||||||||||
w: need||||to||||||||||||||
w: need||||it||||||||||||||
V:3
 [G,B,] | [G,B,]>[G,B,][G,B,] [G,,G,][A,,F,][B,,G,] | [C,G,] [C,C]4 [C,G,] | %3
w: ~|~ ~ ~ ~ ~ ~|~ ~ ~|
 [G,,G,]>[B,,G,][D,F,] G,2 [B,,G,] | [D,F,]3- [D,F,]2 [F,A,] | %5
w: ~ ~ ~ ~ ~|~ * ~|
 [G,B,]>[G,B,][G,B,] [G,,G,][A,,F,][B,,G,] | [C,G,] [C,C]4 [C,G,] | %7
w: ~ ~ ~ ~ ~ ~|~ ~ ~|
 [D,G,]>[D,F,][D,G,] [D,A,]2 [D,F,] | [G,,G,]3- [G,,G,]2 || G, | %10
w: ~ ~ ~ ~ ~|I *|need|
 [D,F,]>[D,F,][D,F,] [D,G,]2 [C,F,] | [B,,G,] [G,,G,]4 [G,B,] | [G,D]>[G,D][G,D] [F,D]2 [G,D] | %13
w: be filled, Lord Je- sus,|I need to|be filled each day; I|
 [D,D]3- [D,D]2 [D,C] | [G,B,]>[G,B,][G,B,] [G,D][G,C][G,B,] | [C,C] [C,C]4 [C,G,] | %16
w: need * to|be filled with the Spir- it,|Each mo- ment|
 [D,G,]>[D,F,][D,G,] [D,A,]2 [D,F,] | [G,,G,]3- [G,,G,]2 |] %18
w: a- long life’s way. *||
V:4
 x | x6 | x6 | x3 G,2 x | x6 | x6 | x6 | x6 | x5 || G, | x6 | x6 | x6 | x6 | x6 | x6 | x6 | x5 |] %18
w: |||~||||||to|||||||||

